lib/brands/icons/google-chat.svg

<svg xmlns="http://www.w3.org/2000/svg" fill="none" aria-hidden="true" viewBox="0 0 48 48"><g id="google-chat-Icon"><g id="Group"><path id="Vector" fill="#00AC47" d="M14.5747 25.4194V13.7188H9.46246C7.95758 13.7188 6.74072 14.9428 6.74072 16.4477V40.6337C6.74072 41.8506 8.2096 42.4554 9.06644 41.5986L14.6899 35.9751H30.7035C32.2084 35.9751 33.4253 34.7582 33.4253 33.2534V28.1411H17.3036C15.7988 28.1411 14.5747 26.9242 14.5747 25.4194Z"/><path id="Vector_2" fill="#5BB974" d="M38.5376 6H17.3038C15.7989 6 14.582 7.21686 14.582 8.72174V13.7188H30.7036C32.2085 13.7188 33.4254 14.9356 33.4254 16.4405V28.1339H38.5376C40.0425 28.1339 41.2594 26.917 41.2594 25.4122V8.72174C41.2594 7.21686 40.0425 6 38.5376 6Z"/><path id="Vector_3" fill="#00832D" d="M30.7035 13.7188H14.5747V25.4122C14.5747 26.917 15.7916 28.1339 17.2964 28.1339H33.418V16.4477C33.4252 14.9428 32.2084 13.7188 30.7035 13.7188Z"/></g></g></svg>

<svg xmlns="http://www.w3.org/2000/svg" fill="none" aria-hidden="true" viewBox="0 0 48 48"><path fill="#00AC47" d="M14.575 25.42V13.718H9.462a2.726 2.726 0 0 0-2.721 2.729v24.186c0 1.217 1.469 1.821 2.325.965l5.624-5.624h16.013a2.72 2.72 0 0 0 2.722-2.722V28.14H17.304a2.726 2.726 0 0 1-2.73-2.722Z"/><path fill="#5BB974" d="M38.538 6H17.304a2.72 2.72 0 0 0-2.722 2.722v4.997h16.122a2.72 2.72 0 0 1 2.721 2.722v11.693h5.113a2.72 2.72 0 0 0 2.721-2.722V8.722A2.72 2.72 0 0 0 38.538 6Z"/><path fill="#00832D" d="M30.703 13.719H14.575v11.693a2.72 2.72 0 0 0 2.721 2.722h16.122V16.448a2.715 2.715 0 0 0-2.715-2.73Z"/></svg>
